X: 9691
T: Dear Tobacco
R: reel
M: 4/4
K: Dmajor
L:1/16
M:2/4
K:D
|:B2E2 E2F2|GFED F4|B2E2 E2c2|d2c2 B2A2|B2E2 E2F2|GFED F4|D3D D2c2|d2c2 B2A2:|
|:B2e2 e2f2|gfed e4|B2e2 e2f2|g2e2 f2d2|A2d2 d2e2|dcBc d4|F2A2 A2c2|d2c2 B2A2:|

